icons/op-show-all-projects-24.svg

<svg width="24" height="24" viewBox="0 0 24 24" fill="none" xmlns="http://www.w3.org/2000/svg">
<path d="M9 5.53846H20V7.69231H9V5.53846ZM9 10.9231H20V13.0769H9V10.9231ZM9 16.3077H20V18.4615H9V16.3077ZM4 5H7V8.23077H4V5ZM4 10.3846H7V13.6154H4V10.3846ZM4 15.7692H7V19H4V15.7692Z" fill="black"/>
</svg>

<svg xmlns="http://www.w3.org/2000/svg" width="24" height="24" viewBox="0 0 24 24"><path d="M9 5.538h11v2.154H9V5.538Zm0 5.385h11v2.154H9v-2.154Zm0 5.385h11v2.154H9v-2.154ZM4 5h3v3.231H4V5Zm0 5.385h3v3.23H4v-3.23Zm0 5.384h3V19H4v-3.231Z"/></svg>
